X: 7
T:Gan Ainm
M:4/4
L:1/8
S:Connie Connel, Cork (fiddle)
R:Reel
D:Session tape - Milltown Malbay 1983
N:As played
Z:Bernie Stocks
K:D
A3A BFAF | DFAF EDB,D | A3B {d}BFAB | dBAF EDB,D :| d2fd edfd | ~d2fd B2AB |\
d2fd edfd | {e}dBAF EDB,D | d2fd edfd | ~d2fd B2Ad | fded {e}dB~B2 | dBAF EDB,D ||
<end>
<start>
